picto/attention-train-left-framed.svg

<svg class="color-immutable" width="30" height="30" viewBox="0 0 30 30" fill="none" xmlns="http://www.w3.org/2000/svg"><path d="M30 0H0V30H30V0Z" fill="#2D327D"/><path d="M25.5 3C26.325 3 27 3.675 27 4.5V25.5C27 26.325 26.325 27 25.5 27H4.5C3.675 27 3 26.325 3 25.5V4.5C3 3.675 3.675 3 4.5 3H25.5ZM25.5 2.625H4.5C3.46613 2.625 2.625 3.46613 2.625 4.5V25.5C2.625 26.5339 3.46613 27.375 4.5 27.375H25.5C26.5339 27.375 27.375 26.5339 27.375 25.5V4.5C27.375 3.46613 26.5339 2.625 25.5 2.625Z" fill="white"/><path d="M5.24432 22.2329L14.1522 6.80422C14.3338 6.50212 14.6289 6.28634 14.9984 6.28514C15.3562 6.28409 15.6672 6.51164 15.8454 6.80564L24.7528 22.2343C24.9236 22.5427 24.9629 22.9063 24.7793 23.2267C24.6012 23.5371 24.2487 23.6924 23.9049 23.6999H6.08972C5.73729 23.6933 5.40264 23.546 5.21724 23.2266C5.03732 22.9174 5.07917 22.5342 5.24432 22.2329Z" fill="white"/><path d="M14.9983 7.73866L23.5205 22.5H6.47571L14.9983 7.73866ZM15.0008 6.28523C15 6.28523 14.9992 6.28523 14.9983 6.28523C14.6289 6.28636 14.3338 6.50213 14.1521 6.80431L5.24429 22.233C5.07914 22.5343 5.03736 22.9175 5.21721 23.2267C5.40261 23.5461 5.73726 23.6934 6.08969 23.7H23.905C24.2487 23.6925 24.6013 23.5372 24.7793 23.2268C24.963 22.9064 24.9235 22.5428 24.7528 22.2344L15.8454 6.80573C15.6676 6.51241 15.3576 6.28516 15.0008 6.28523Z" fill="#EB0000"/><path d="M11.5936 17.4831V18.5854C11.5936 18.6493 11.5418 18.7011 11.478 18.7011C11.4141 18.7011 11.3623 18.6493 11.3623 18.5854V17.6455H11.2607V20.1585C11.2607 20.2504 11.1862 20.325 11.0942 20.325C11.0023 20.325 10.9279 20.2504 10.9279 20.1585V18.697H10.8223V20.1585C10.8223 20.2504 10.7478 20.325 10.6558 20.325C10.5639 20.325 10.4893 20.2504 10.4893 20.1585V17.6455H10.3879V18.5854C10.3879 18.6493 10.336 18.7011 10.2721 18.7011C10.2083 18.7011 10.1565 18.6493 10.1565 18.5854V17.4831C10.1565 17.3038 10.302 17.1583 10.4813 17.1583H11.269C11.4482 17.1583 11.5936 17.3038 11.5936 17.4831Z" fill="black"/><path d="M10.5571 16.7498C10.5571 16.5705 10.7026 16.425 10.882 16.425C11.0612 16.425 11.2067 16.5705 11.2067 16.7498C11.2067 16.9291 11.0611 17.0747 10.882 17.0747C10.7026 17.0747 10.5571 16.9291 10.5571 16.7498Z" fill="black"/><path d="M12 20.625H13.875H14.25V21V22.125H13.875V21H12V20.625Z" fill="#EB0000"/><path d="M8.625 21L12 21L12 20.625L8.625 20.625L8.625 21Z" fill="black"/><path d="M14.2499 15V15.1591L14.0908 15H14.2499Z" fill="#EB0000"/><path d="M13.7499 15L14.2499 15.5V15.6591L13.5908 15H13.7499Z" fill="#EB0000"/><path d="M13.25 15L14.2499 16V16.1591L13.0908 15H13.25Z" fill="#EB0000"/><path d="M12.2499 15L14.2499 17V17.1591L12.0908 15H12.2499Z" fill="#EB0000"/><path d="M12 15.25L14.25 17.5V17.6591L12 15.4091V15.25Z" fill="#EB0000"/><path d="M12 15.75L14.25 18V18.1591L12 15.9091V15.75Z" fill="#EB0000"/><path d="M12 16.25L14.25 18.5V18.6591L12 16.4091V16.25Z" fill="#EB0000"/><path d="M12 16.75L14.25 19V19.1591L12 16.9091V16.75Z" fill="#EB0000"/><path d="M12 17.25L14.25 19.5V19.6591L12 17.4091V17.25Z" fill="#EB0000"/><path d="M12 17.75L14.25 20V20.1591L12 17.9091V17.75Z" fill="#EB0000"/><path d="M12 18.25L14 20.25H13.8409L12 18.4091V18.25Z" fill="#EB0000"/><path d="M12 18.75L13.5 20.25H13.3409L12 18.9091V18.75Z" fill="#EB0000"/><path d="M12 19.25L13 20.25H12.8409L12 19.4091V19.25Z" fill="#EB0000"/><path d="M12 19.75L12.5 20.25H12.3409L12 19.9091V19.75Z" fill="#EB0000"/><path d="M12.7499 15L14.2499 16.5V16.6591L12.5908 15H12.7499Z" fill="#EB0000"/><path d="M15.375 22.125L15.75 22.125L15.75 21.525L15.375 21.525L15.375 22.125Z" fill="black"/><path d="M18 22.125L18.375 22.125L18.375 21.525L18 21.525L18 22.125Z" fill="black"/><path d="M14.625 15.9V20.475C14.625 20.5575 14.6551 20.6854 14.692 20.7592L14.9329 21.2408C14.9698 21.3146 15.0675 21.375 15.15 21.375H18.6C18.6825 21.375 18.7801 21.3146 18.817 21.2408L19.0579 20.7592C19.0949 20.6854 19.125 20.5575 19.125 20.475V15.9C19.125 15.8175 19.0773 15.7023 19.0189 15.6439L18.4811 15.1061C18.4227 15.0477 18.3075 15 18.225 15H15.525C15.4425 15 15.3273 15.0477 15.2689 15.1061L14.7311 15.6439C14.6727 15.7023 14.625 15.8175 14.625 15.9ZM17.25 15.75H16.5V15.45H17.25V15.75ZM18 19.2H18.75V19.5H18V19.2ZM15 19.2H15.75V19.5H15V19.2ZM15 16.125H18.75V18H15V16.125Z" fill="black"/><path d="M15.8813 13.875H17.8688C17.9412 13.875 18 13.9338 18 14.0063C18 14.0787 17.9412 14.1375 17.8688 14.1375H17.0063V14.85H16.7438V14.1375H15.8813C15.8088 14.1375 15.75 14.0787 15.75 14.0063C15.75 13.9338 15.8088 13.875 15.8813 13.875Z" fill="black"/></svg>

<svg class="color-immutable" width="30" height="30" viewBox="0 0 30 30" fill="none" xmlns="http://www.w3.org/2000/svg"><g clip-path="url(#a)"><path d="M30 0H0v30h30V0Z" fill="#2D327D"/><path d="M25.5 3c.825 0 1.5.675 1.5 1.5v21c0 .825-.675 1.5-1.5 1.5h-21c-.825 0-1.5-.675-1.5-1.5v-21C3 3.675 3.675 3 4.5 3h21Zm0-.375h-21A1.877 1.877 0 0 0 2.625 4.5v21c0 1.034.841 1.875 1.875 1.875h21a1.877 1.877 0 0 0 1.875-1.875v-21A1.877 1.877 0 0 0 25.5 2.625Z" fill="#fff"/><path d="m5.244 22.233 8.908-15.429c.182-.302.477-.518.846-.519.358 0 .67.227.847.52l8.908 15.43c.17.308.21.671.026.992-.178.31-.53.465-.874.473H6.09c-.353-.007-.687-.154-.873-.473-.18-.31-.138-.693.027-.994Z" fill="#fff"/><path d="M14.998 7.739 23.52 22.5H6.476l8.522-14.761Zm.003-1.454h-.003c-.37.001-.664.217-.846.52L5.244 22.232c-.165.301-.207.684-.027.994.186.32.52.466.873.473h17.815c.344-.008.696-.163.874-.473.184-.32.145-.684-.026-.993L15.845 6.806c-.177-.294-.487-.52-.844-.52Z" fill="#EB0000"/><path d="M11.594 17.483v1.102a.116.116 0 1 1-.232 0v-.94h-.101v2.514a.167.167 0 0 1-.333 0v-1.462h-.106v1.462a.167.167 0 0 1-.333 0v-2.514h-.101v.94a.116.116 0 0 1-.232 0v-1.102c0-.18.146-.325.325-.325h.788c.18 0 .325.146.325.325ZM10.557 16.75a.325.325 0 1 1 .65 0 .325.325 0 0 1-.65 0Z" fill="#000"/><path d="M12 20.625h2.25v1.5h-.375V21H12v-.375Z" fill="#EB0000"/><path d="M8.625 21H12v-.375H8.625V21Z" fill="#000"/><path d="M14.25 15v.16l-.16-.16h.16ZM13.75 15l.5.5v.16l-.66-.66h.16ZM13.25 15l1 1v.16L13.09 15h.16ZM12.25 15l2 2v.16L12.09 15h.16ZM12 15.25l2.25 2.25v.16L12 15.41v-.16ZM12 15.75 14.25 18v.16L12 15.91v-.16ZM12 16.25l2.25 2.25v.16L12 16.41v-.16ZM12 16.75 14.25 19v.16L12 16.91v-.16ZM12 17.25l2.25 2.25v.16L12 17.41v-.16ZM12 17.75 14.25 20v.16L12 17.91v-.16ZM12 18.25l2 2h-.16L12 18.41v-.16ZM12 18.75l1.5 1.5h-.16L12 18.91v-.16ZM12 19.25l1 1h-.16l-.84-.84v-.16ZM12 19.75l.5.5h-.16l-.34-.34v-.16ZM12.75 15l1.5 1.5v.16L12.59 15h.16Z" fill="#EB0000"/><path d="M15.375 22.125h.375v-.6h-.375v.6ZM18 22.125h.375v-.6H18v.6ZM14.625 15.9v4.575c0 .082.03.21.067.284l.24.482a.267.267 0 0 0 .218.134h3.45c.082 0 .18-.06.217-.134l.24-.482a.755.755 0 0 0 .068-.284V15.9a.417.417 0 0 0-.106-.256l-.538-.538a.417.417 0 0 0-.256-.106h-2.7a.417.417 0 0 0-.256.106l-.538.538a.417.417 0 0 0-.106.256Zm2.625-.15h-.75v-.3h.75v.3ZM18 19.2h.75v.3H18v-.3Zm-3 0h.75v.3H15v-.3Zm0-3.075h3.75V18H15v-1.875ZM15.881 13.875h1.988a.131.131 0 0 1 0 .262h-.863v.713h-.262v-.713h-.863a.131.131 0 1 1 0-.262Z" fill="#000"/></g><defs><clipPath id="a"><path fill="#fff" d="M0 0h30v30H0z"/></clipPath></defs></svg>
